images_elementary_svg/cmd/sc_insertcolumnbreak.svg

<svg height="16" width="16" xmlns="http://www.w3.org/2000/svg" xmlns:xlink="http://www.w3.org/1999/xlink"><linearGradient id="a" gradientTransform="matrix(.2538 0 0 .30502 19.13 -.685)" gradientUnits="userSpaceOnUse" x1="-51.786" x2="-51.786" y1="50.786" y2="2.906"><stop offset="0" stop-opacity=".34"/><stop offset="1" stop-opacity=".247"/></linearGradient><linearGradient id="b" gradientTransform="matrix(.24324 0 0 .35135 2.162 -.432)" gradientUnits="userSpaceOnUse" x1="24" x2="24" y1="6.923" y2="41.077"><stop offset="0" stop-color="#fff"/><stop offset="0" stop-color="#fff" stop-opacity=".235"/><stop offset="1" stop-color="#fff" stop-opacity=".157"/><stop offset="1" stop-color="#fff" stop-opacity=".392"/></linearGradient><linearGradient id="c" gradientTransform="matrix(.2857 0 0 .3042 1.143 .233)" gradientUnits="userSpaceOnUse" x1="25.132" x2="25.132" y1=".985" y2="47.013"><stop offset="0" stop-color="#f4f4f4"/><stop offset="1" stop-color="#dbdbdb"/></linearGradient><path d="m3 1h10v14h-10z" fill="url(#c)"/><path d="m12.5 14.5h-9v-13h9z" fill="none" stroke="url(#b)" stroke-linecap="round"/><path d="m2.5.5h11v15h-11z" fill="none" stroke="url(#a)" stroke-linejoin="round"/><path d="m4.507 4.5.976-.017m5.024.017h.993m-6.993 2 .976-.017m5.024.017h.993m-6.993 2 .976-.017m5.024.017h.993m-6.993 2 .976-.017m5.024.017h.993" stroke="#8c8c8c" stroke-linecap="round"/><path d="m7 4v8h-2v2h4v-8l1-1-1-1z" fill="#6ead20"/><path d="m7.508 4.508.012 8h-1.995v1.047h2.99v-.92h.005l-.01-7.075.49-.56-.492-.492z" fill="#fff" opacity=".4"/></svg>

<svg xmlns="http://www.w3.org/2000/svg" xmlns:xlink="http://www.w3.org/1999/xlink" height="16" width="16"><defs><linearGradient gradientTransform="matrix(.2538 0 0 .30502 19.13 -.685)" gradientUnits="userSpaceOnUse" xlink:href="#a" id="f" y2="2.906" x2="-51.786" y1="50.786" x1="-51.786"/><linearGradient id="a"><stop offset="0" stop-opacity=".34"/><stop offset="1" stop-opacity=".247"/></linearGradient><linearGradient gradientTransform="matrix(.24324 0 0 .35135 2.162 -.432)" gradientUnits="userSpaceOnUse" xlink:href="#b" id="e" y2="41.077" x2="24" y1="6.923" x1="24"/><linearGradient id="b"><stop offset="0" stop-color="#fff"/><stop offset="0" stop-color="#fff" stop-opacity=".235"/><stop offset="1" stop-color="#fff" stop-opacity=".157"/><stop offset="1" stop-color="#fff" stop-opacity=".392"/></linearGradient><linearGradient id="c"><stop offset="0" stop-color="#f4f4f4"/><stop offset="1" stop-color="#dbdbdb"/></linearGradient><linearGradient gradientTransform="matrix(.2857 0 0 .3042 1.143 .233)" gradientUnits="userSpaceOnUse" xlink:href="#c" id="d" y2="47.013" x2="25.132" y1=".985" x1="25.132"/></defs><path d="M3 1h10v14H3V1z" fill="url(#d)"/><path d="M12.5 14.5h-9v-13h9z" fill="none" stroke="url(#e)" stroke-linecap="round"/><path d="M2.5.5h11v15h-11V.5z" fill="none" stroke="url(#f)" stroke-linejoin="round"/><path d="M4.507 4.5l.976-.017M10.507 4.5h.993M4.507 6.5l.976-.017M10.507 6.5h.993M4.507 8.5l.976-.017M10.507 8.5h.993M4.507 10.5l.976-.017M10.507 10.5h.993" stroke="#8c8c8c" stroke-linecap="round"/><path d="M7 4v8H5v2h4V6l1-1-1-1z" fill="#6ead20"/><path d="M7.508 4.508l.012 8H5.525v1.047h2.99v-.92h.005L8.51 5.56 9 5l-.492-.492z" opacity=".4" fill="#fff"/></svg>
